packages/icons/src/components/Icon/assets/small-outline/home.svg

<svg width="16" height="16" viewBox="0 0 16 16" fill="none" xmlns="http://www.w3.org/2000/svg">
<path d="M8.81281 13.469V11.1252C8.81281 11.108 8.79882 11.094 8.78156 11.094H7.21906C7.20181 11.094 7.18781 11.108 7.18781 11.1252V13.469C7.18781 14.3147 6.50225 15.0002 5.65656 15.0002H4.09406C3.24839 15.0002 2.56281 14.3147 2.56281 13.469V9.5315H2.53156C1.91224 9.53149 1.35353 9.15836 1.11652 8.58618C0.879614 8.01404 1.01067 7.35513 1.44855 6.91724L6.9173 1.44849C7.51529 0.8505 8.48533 0.850508 9.08332 1.44849L14.5521 6.91724C14.99 7.35513 15.121 8.01403 14.8841 8.58618C14.6471 9.15837 14.0884 9.5315 13.4691 9.5315H13.4378V13.469C13.4378 14.3147 12.7522 15.0002 11.9066 15.0002H10.3441C9.49839 15.0002 8.81281 14.3147 8.81281 13.469ZM10.3128 13.469C10.3128 13.4862 10.3268 13.5002 10.3441 13.5002H11.9066C11.9238 13.5002 11.9378 13.4863 11.9378 13.469V8.7815C11.9378 8.36729 12.2736 8.03151 12.6878 8.0315H13.4691C13.4817 8.0315 13.4935 8.02364 13.4984 8.01196C13.503 8.00037 13.5004 7.98663 13.4915 7.97778L8.02277 2.50903C8.01057 2.49684 7.99005 2.49683 7.97785 2.50903L2.5091 7.97778C2.50027 7.98663 2.49763 8.00038 2.50227 8.01196C2.5071 8.02363 2.51893 8.03149 2.53156 8.0315H3.31281C3.72703 8.0315 4.06281 8.36728 4.06281 8.7815V13.469C4.06281 13.4862 4.07681 13.5002 4.09406 13.5002H5.65656C5.67382 13.5002 5.68781 13.4863 5.68781 13.469V11.1252C5.68781 10.2796 6.37339 9.59401 7.21906 9.594H8.78156C9.62725 9.594 10.3128 10.2796 10.3128 11.1252V13.469Z" fill="#727683"/>
</svg>

<svg xmlns="http://www.w3.org/2000/svg" width="16" height="16" fill="none" viewBox="0 0 16 16">
    <path fill="#727683" d="M8.813 13.469v-2.344a.03.03 0 0 0-.031-.031H7.219a.03.03 0 0 0-.031.031v2.344c0 .846-.686 1.531-1.531 1.531H4.094a1.53 1.53 0 0 1-1.531-1.531V9.532h-.031a1.532 1.532 0 0 1-1.083-2.615l5.468-5.469a1.53 1.53 0 0 1 2.166 0l5.47 5.47a1.532 1.532 0 0 1-1.084 2.613h-.031v3.938c0 .846-.686 1.531-1.531 1.531h-1.563a1.53 1.53 0 0 1-1.531-1.531m1.5 0c0 .017.014.031.031.031h1.563a.03.03 0 0 0 .03-.031V8.782a.75.75 0 0 1 .75-.75h.782a.03.03 0 0 0 .03-.02.03.03 0 0 0-.008-.034L8.024 2.509a.03.03 0 0 0-.045 0l-5.47 5.469a.03.03 0 0 0-.007.034q.009.019.03.02h.78a.75.75 0 0 1 .75.75v4.687c0 .017.015.031.032.031h1.563a.03.03 0 0 0 .03-.031v-2.344c0-.845.686-1.531 1.532-1.531h1.563c.845 0 1.53.686 1.53 1.531z"/>
</svg>
